X:1
T:Title
%%score ( 1 2 ) { ( 3 5 ) | ( 4 6 ) }
L:1/8
Q:1/4=116
M:4/4
K:A
V:1 treble nm="Bright Piano"
V:2 treble 
V:3 bass nm="Bright Piano"
V:5 bass 
V:4 bass 
V:6 bass 
V:1
 [A,C]2 [G,B,]2 [A,C]2 [B,D]2 | [DF]2 [CE]2 [CE]2 z2 | [CA]2 [DG]2 [EA]2 [DB]2 | %3
w: Wilhelm~Brockhaus * * *|||
 [CA]2 [EG]2 [EG]2 z2 | [DB]2 [CA]2 [DG]2 [DF]2 | E4 [DF]4 | [CE]4 [B,D]4 | [A,C]4 z4 | %8
w: |||||
 [A,C]2 [G,B,]2 [A,C]2 [B,D]2 | [DF]2 [CE]2 [CE]2 z2 | [CA]2 [DG]2 [EA]2 [DB]2 | %11
w: |||
 [CA]2 [EG]2 [EG]2 z2 | [EB]2 [Ec]2 [Ed]2 [EB]2 | [Ae]4 [Gd]4 | [Ec]4 [DB]4 | [CA]4 z4 | %16
w: |||||
 [DB]4 [DB]4 | [CA]4 [CA]4 | [DG]4 F2 G2 | [CA]4 [CE]4 | [Ec]4 [Ec]4 | [Ed]4 [Ec]4 | %22
w: ||||||
 [GB]2 [FA]2 [EG]2 [FA]2 | [GB]4 z4 | [EB]4 [EB]4 | [Ec]4 [EB]4 | [EA]4 [EB]4 | [Ec]4 [A^d]4 | %28
w: ||||||
 [Ge]4 [B^d]2 [Ac]2 | [GB]4 [^DA]4 | [EG]4 [^DF]4 | [B,E]4 z4 | [A,C]2 [G,B,]2 [A,C]2 [B,D]2 | %33
w: |||||
 [DF]2 [CE]2 [CE]2 z2 | [CA]2 [DG]2 [EA]2 [DB]2 | [CA]2 [EG]2 [EG]2 z2 | B2 c2 d2 B2 | %37
w: ||||
 [Ee]4 A2 B2 | [Ec]4 [DB]4 | [CA]4 z4 |] %40
w: |||
V:2
 x8 | x8 | x8 | x8 | x8 | x8 | x8 | x8 | x8 | x8 | x8 | x8 | x8 | x8 | x8 | x8 | x8 | x8 | z4 D4 | %19
 x8 | x8 | x8 | x8 | x8 | x8 | x8 | x8 | x8 | x8 | x8 | x8 | x8 | x8 | x8 | x8 | x8 | E4 E4 | %37
 z4 F4 | x8 | x8 |] %40
V:3
 E,2 E,2 E,2 E,2 | A,4 A,2 z2 | E,2 E,2 E,2 F,2 | z2 B,2 B,2 z2 | E,2 E,2 E,2 G,2 | A,4 A,4 | %6
 A,6 z2 | A,4 z4 | E,2 E,2 E,2 E,2 | A,4 A,2 z2 | E,2 E,2 E,2 F,2 | z2 B,2 B,2 z2 | %12
 G,2 A,2 B,2 G,2 | C4 B,4 | A,4 G,4 | A,4 z4 | G,4 G,4 | A,4 A,4 | B,4 B,4 | A,4 A,4 | A,4 A,4 | %21
 B,4 A,4 | E,4 B,4 | B,4 z4 | G,4 G,4 | A,4 G,4 | A,4 G,4 | A,4 F,2 B,2 | B,4 C4 | B,4 B,4 | %30
 B,4 A,4 | G,4 z4 | E,2 E,2 E,2 E,2 | A,4 A,2 z2 | E,2 E,2 E,2 F,2 | z2 B,2 B,2 z2 | %36
 G,2 A,2 B,2 G,2 | A,4 A,4 | A,4 G,4 | A,4 z4 |] %40
V:4
 A,,2 D,2 C,2 B,,2 | A,,4 A,,2 z2 | A,,2 B,,2 C,2 D,2 | z4 E,2 z2 | G,,2 A,,2 B,,2 E,2 | A,,4 D,4 | %6
 E,4 z2 G,2 | A,,4 z4 | A,,2 D,2 C,2 B,,2 | A,,4 A,,2 z2 | A,,2 B,,2 C,2 D,2 | z4 E,2 z2 | %12
 E,2 E,2 E,2 E,2 | E,4 E,4 | E,4 E,4 | A,,4 z4 | E,4 E,4 | E,4 E,4 | E,4 E,4 | E,4 E,4 | %20
 A,,4 A,,4 | G,,4 A,,4 | z4 E,4 | E,4 z4 | E,4 E,4 | E,4 E,4 | C,4 B,,4 | A,,4 B,,4 | E,4 A,4 | %29
 z4 B,,4 | E,4 B,,4 | E,4 z4 | A,,2 D,2 C,2 B,,2 | A,,4 A,,2 z2 | A,,2 B,,2 C,2 D,2 | z4 E,2 z2 | %36
 E,4 E,4 | C,4 D,4 | E,4 E,4 | A,,4 z4 |] %40
V:5
 x8 | x8 | x8 | E,4 z4 | x8 | x8 | x8 | x8 | x8 | x8 | x8 | E,4 z4 | x8 | x8 | x8 | x8 | x8 | x8 | %18
 x8 | x8 | x8 | x8 | x8 | x8 | x8 | x8 | x8 | x8 | x8 | x8 | x8 | x8 | x8 | x8 | x8 | E,4 z4 | x8 | %37
 x8 | x8 | x8 |] %40
V:6
 x8 | x8 | x8 | x8 | x8 | x8 | z4 E,4 | x8 | x8 | x8 | x8 | x8 | x8 | x8 | x8 | x8 | x8 | x8 | x8 | %19
 x8 | x8 | x8 | x8 | x8 | x8 | x8 | x8 | x8 | x8 | x8 | x8 | x8 | x8 | x8 | x8 | x8 | x8 | x8 | %38
 x8 | x8 |] %40

